X:13469
T:Polska i Am efter Anders Eriksson Moberg, lvros
S:E nr 647
A:lvros, Hrjedalen
B:Einar vergaard nr 647
O:Anders Eriksson Moberg
M:3/4
L:1/16
Q:1/4=120
K:Am
(AB)A^G A2E2 E3B|(cd)cB c2E2 E3c|c2Bc d2cd e2c2|B2A^G A2E2 C2A,2|\
(AB)A^G A2E2 E3B|(cd)cB c2E2 E3c|c2Bc d2cd e2c2|{Bc}B2A^G A6z2::\
{g}a2ba g2ag f2ed|g2ag f2ed e2c2|a2ba g2ag f2ed|g2ag f2ed e2c2|\
(AB)A^G A2B2 c2d2|{e}d2cd (d2e2) e4-|e2a2 g2ag f2ed|g2ag f2ed e2c2|\
c2a2 g2ag f2ed|g2ag f2ed e2c2|(AB)A^G A2c2 e2c2|B2A^G A8:|\
T:Andrastmma
A,3B, C4 A,4|(AB)A^G A2E2 C3E|A2^GA B2AB c2e2|d2cB c2A2 E2C2|\
A,3B, C4 A,4|E3D C4 A,4|E4 D4 C2E2|D2CB, [C8E8]::\
{e}f2gf e2fe d2cB|e2fe d2cB c2G2|f2gf e2fe d2cB|e2fe d2cB c2G2|\
A,3B, C2E2 A2B2|{c}B2AB (B2A2) [^G4(B4]|[^G2)B2]f2 e2fe d2cB|\
e2fe d2cB c2G2|G2f2 e2fe d2cB|e2fe d2cB c2A2|(cd)cB c2A2 E2CE|\
D2CB, [C8E8]:|
